X: 544
T: The Nineteenth of May
T: The 19th of May
N: Pub: J. Walsh, London, 1748
Z: 2012 John Chambers <jc:trillian.mit.edu>
S: 4: ACMV  http://archive.org/details/acompositemusicv01rugg p.10
N: The title is given in both forms to improve the chance of successful lookups.
M: 2/4
L: 1/8
K: G
% - - - - - - - - - - - - - - - - - - - - - - - - -
V: 1
|: GBAc | dBge | dBAG | FAD2 | GBAc | dBge | dBAG | AFG2 :|
|: BdBG | FAFD | Bdgf | ecBA | BdBG | FAFD | gdec | dBG2 :|
% - - - - - - - - - - - - - - - - - - - - - - - - -
V: 2 clef=bass middle=d
|: g2fd | g2bc' | b2c'2 | d'2d2 | g2fd | g2bc' | b2g2 | d2g2 :|
|: g2G2 | d'2d2 | g2b2 | c'2d'2 | g2G2 | d'2d2 | b2c'2 | g2G2 :|
% - - - - - - - - - - - - - - - - - - - - - - - - -
%%begintext align
%% The First and Second Cu. foot it Right and Left half round .|
%% The same Back again :|
%% Lead down one Cu. up again and cast off one Cu. .|.
%% Hands round all Six :|:
%%endtext

%%sep 1 1 500
%%sep 1 1 500
